src/pos-icons/arrow-top-left-thick.svg

<svg height="24" viewBox="0 0 24 24" width="24" xmlns="http://www.w3.org/2000/svg"><path d="m9.12 11.94v4.95h-3.43v-11.2h11.2v3.43h-4.95l6.37 6.38-2.81 2.81z"/></svg>

<?xml version="1.0" encoding="UTF-8"?><!DOCTYPE svg PUBLIC "-//W3C//DTD SVG 1.1//EN" "http://www.w3.org/Graphics/SVG/1.1/DTD/svg11.dtd"><svg xmlns="http://www.w3.org/2000/svg" xmlns:xlink="http://www.w3.org/1999/xlink" version="1.1" id="mdi-arrow-top-left-thick" width="24" height="24" viewBox="0 0 24 24"><path d="M9.12,11.94V16.89H5.69V5.69H16.89V9.12H11.94L18.31,15.5L15.5,18.31L9.12,11.94Z" /></svg>
